packages/icons/src/components/Icon/assets/small-outline/alert-circle.svg

<svg width="16" height="16" viewBox="0 0 16 16" fill="none" xmlns="http://www.w3.org/2000/svg">
<path fill-rule="evenodd" clip-rule="evenodd" d="M8.0001 2.76373C5.10813 2.76373 2.76373 5.10813 2.76373 8.0001C2.76373 10.8921 5.10813 13.2365 8.0001 13.2365C10.8921 13.2365 13.2365 10.8921 13.2365 8.0001C13.2365 5.10813 10.8921 2.76373 8.0001 2.76373ZM1.6001 8.0001C1.6001 4.46548 4.46548 1.6001 8.0001 1.6001C11.5347 1.6001 14.4001 4.46548 14.4001 8.0001C14.4001 11.5347 11.5347 14.4001 8.0001 14.4001C4.46548 14.4001 1.6001 11.5347 1.6001 8.0001ZM8.0001 5.47889C8.32143 5.47889 8.58192 5.73937 8.58192 6.0607V8.48495C8.58192 8.80628 8.32143 9.06676 8.0001 9.06676C7.67877 9.06676 7.41828 8.80628 7.41828 8.48495V6.0607C7.41828 5.73937 7.67877 5.47889 8.0001 5.47889ZM7.41828 10.4243C7.41828 10.103 7.67877 9.84252 8.0001 9.84252H8.00495C8.32628 9.84252 8.58676 10.103 8.58676 10.4243V10.4292C8.58676 10.7505 8.32628 11.011 8.00495 11.011H8.0001C7.67877 11.011 7.41828 10.7505 7.41828 10.4292V10.4243Z" fill="black"/>
</svg>

<svg xmlns="http://www.w3.org/2000/svg" width="16" height="16" fill="none" viewBox="0 0 16 16">
    <path d="M8 2.764a5.236 5.236 0 1 0 0 10.472A5.236 5.236 0 0 0 8 2.764M1.6 8a6.4 6.4 0 1 1 12.8 0A6.4 6.4 0 0 1 1.6 8M8 5.48c.321 0 .582.26.582.582v2.424a.582.582 0 0 1-1.164 0V6.061c0-.322.26-.582.582-.582m-.582 4.945c0-.321.26-.581.582-.581h.005c.321 0 .582.26.582.581v.005c0 .322-.26.582-.582.582H8a.58.58 0 0 1-.582-.582z" clip-rule="evenodd"/>
</svg>
